portal/assets/img/component/checkbox/spacing-checkbox.svg

<svg width="114" height="67" viewBox="0 0 114 67" fill="none" xmlns="http://www.w3.org/2000/svg">
<rect x="0.5" y="4.5" width="23" height="23" rx="4.5" fill="white" stroke="#98A2B3"/>
<path d="M44.7727 22.1818C43.9545 22.1818 43.25 21.9886 42.6591 21.6023C42.0682 21.2159 41.6136 20.6837 41.2955 20.0057C40.9773 19.3277 40.8182 18.553 40.8182 17.6818C40.8182 16.7955 40.9811 16.0133 41.3068 15.3352C41.6364 14.6534 42.0947 14.1212 42.6818 13.7386C43.2727 13.3523 43.9621 13.1591 44.75 13.1591C45.3636 13.1591 45.9167 13.2727 46.4091 13.5C46.9015 13.7273 47.3049 14.0455 47.6193 14.4545C47.9337 14.8636 48.1288 15.3409 48.2045 15.8864H46.8636C46.7614 15.4886 46.5341 15.1364 46.1818 14.8295C45.8333 14.5189 45.3636 14.3636 44.7727 14.3636C44.25 14.3636 43.7917 14.5 43.3977 14.7727C43.0076 15.0417 42.7027 15.4223 42.483 15.9148C42.267 16.4034 42.1591 16.9773 42.1591 17.6364C42.1591 18.3106 42.2652 18.8977 42.4773 19.3977C42.6932 19.8977 42.9962 20.286 43.3864 20.5625C43.7803 20.839 44.2424 20.9773 44.7727 20.9773C45.1212 20.9773 45.4375 20.9167 45.7216 20.7955C46.0057 20.6742 46.2462 20.5 46.4432 20.2727C46.6402 20.0455 46.7803 19.7727 46.8636 19.4545H48.2045C48.1288 19.9697 47.9413 20.4337 47.642 20.8466C47.3466 21.2557 46.9545 21.5814 46.4659 21.8239C45.9811 22.0625 45.4167 22.1818 44.7727 22.1818ZM51.5057 16.75V22H50.1648V10.3636H51.5057V14.6364H51.6193C51.8239 14.1856 52.1307 13.8277 52.5398 13.5625C52.9527 13.2936 53.5019 13.1591 54.1875 13.1591C54.7822 13.1591 55.303 13.2784 55.75 13.517C56.197 13.7519 56.5436 14.1136 56.7898 14.6023C57.0398 15.0871 57.1648 15.7045 57.1648 16.4545V22H55.8239V16.5455C55.8239 15.8523 55.6439 15.3163 55.2841 14.9375C54.928 14.5549 54.4337 14.3636 53.8011 14.3636C53.3617 14.3636 52.9678 14.4564 52.6193 14.642C52.2746 14.8277 52.0019 15.0985 51.8011 15.4545C51.6042 15.8106 51.5057 16.2424 51.5057 16.75ZM63.277 22.1818C62.4361 22.1818 61.7107 21.9962 61.1009 21.625C60.4948 21.25 60.027 20.7273 59.6974 20.0568C59.3717 19.3826 59.2088 18.5985 59.2088 17.7045C59.2088 16.8106 59.3717 16.0227 59.6974 15.3409C60.027 14.6553 60.4853 14.1212 61.0724 13.7386C61.6634 13.3523 62.3527 13.1591 63.1406 13.1591C63.5952 13.1591 64.044 13.2348 64.4872 13.3864C64.9304 13.5379 65.3338 13.7841 65.6974 14.125C66.0611 14.4621 66.3509 14.9091 66.5668 15.4659C66.7827 16.0227 66.8906 16.7083 66.8906 17.5227V18.0909H60.1634V16.9318H65.527C65.527 16.4394 65.4285 16 65.2315 15.6136C65.0384 15.2273 64.7618 14.9223 64.402 14.6989C64.0459 14.4754 63.6255 14.3636 63.1406 14.3636C62.6065 14.3636 62.1444 14.4962 61.7543 14.7614C61.3679 15.0227 61.0705 15.3636 60.8622 15.7841C60.6539 16.2045 60.5497 16.6553 60.5497 17.1364V17.9091C60.5497 18.5682 60.6634 19.1269 60.8906 19.5852C61.1217 20.0398 61.4418 20.3864 61.8509 20.625C62.2599 20.8598 62.7353 20.9773 63.277 20.9773C63.6293 20.9773 63.9474 20.928 64.2315 20.8295C64.5194 20.7273 64.7675 20.5758 64.9759 20.375C65.1842 20.1705 65.3452 19.9167 65.4588 19.6136L66.7543 19.9773C66.6179 20.4167 66.3887 20.803 66.0668 21.1364C65.7448 21.4659 65.3471 21.7235 64.8736 21.9091C64.4001 22.0909 63.8679 22.1818 63.277 22.1818ZM72.4759 22.1818C71.6577 22.1818 70.9531 21.9886 70.3622 21.6023C69.7713 21.2159 69.3168 20.6837 68.9986 20.0057C68.6804 19.3277 68.5213 18.553 68.5213 17.6818C68.5213 16.7955 68.6842 16.0133 69.0099 15.3352C69.3395 14.6534 69.7978 14.1212 70.3849 13.7386C70.9759 13.3523 71.6652 13.1591 72.4531 13.1591C73.0668 13.1591 73.6198 13.2727 74.1122 13.5C74.6046 13.7273 75.008 14.0455 75.3224 14.4545C75.6368 14.8636 75.8319 15.3409 75.9077 15.8864H74.5668C74.4645 15.4886 74.2372 15.1364 73.8849 14.8295C73.5365 14.5189 73.0668 14.3636 72.4759 14.3636C71.9531 14.3636 71.4948 14.5 71.1009 14.7727C70.7107 15.0417 70.4058 15.4223 70.1861 15.9148C69.9702 16.4034 69.8622 16.9773 69.8622 17.6364C69.8622 18.3106 69.9683 18.8977 70.1804 19.3977C70.3963 19.8977 70.6993 20.286 71.0895 20.5625C71.4834 20.839 71.9455 20.9773 72.4759 20.9773C72.8243 20.9773 73.1406 20.9167 73.4247 20.7955C73.7088 20.6742 73.9493 20.5 74.1463 20.2727C74.3433 20.0455 74.4834 19.7727 74.5668 19.4545H75.9077C75.8319 19.9697 75.6444 20.4337 75.3452 20.8466C75.0497 21.2557 74.6577 21.5814 74.169 21.8239C73.6842 22.0625 73.1198 22.1818 72.4759 22.1818ZM79.1179 18.8182L79.0952 17.1591H79.3679L83.1861 13.2727H84.8452L80.777 17.3864H80.6634L79.1179 18.8182ZM77.8679 22V10.3636H79.2088V22H77.8679ZM83.4134 22L80.0043 17.6818L80.9588 16.75L85.1179 22H83.4134ZM86.7528 22V10.3636H88.0938V14.6591H88.2074C88.3059 14.5076 88.4422 14.3144 88.6165 14.0795C88.7945 13.8409 89.0483 13.6288 89.3778 13.4432C89.7112 13.2538 90.1619 13.1591 90.7301 13.1591C91.465 13.1591 92.1127 13.3428 92.6733 13.7102C93.2339 14.0777 93.6714 14.5985 93.9858 15.2727C94.3002 15.947 94.4574 16.7424 94.4574 17.6591C94.4574 18.5833 94.3002 19.3845 93.9858 20.0625C93.6714 20.7367 93.2358 21.2595 92.679 21.6307C92.1222 21.9981 91.4801 22.1818 90.7528 22.1818C90.1922 22.1818 89.7434 22.089 89.4062 21.9034C89.0691 21.714 88.8097 21.5 88.6278 21.2614C88.446 21.0189 88.3059 20.8182 88.2074 20.6591H88.0483V22H86.7528ZM88.071 17.6364C88.071 18.2955 88.1676 18.8769 88.3608 19.3807C88.554 19.8807 88.8362 20.2727 89.2074 20.5568C89.5786 20.8371 90.0331 20.9773 90.571 20.9773C91.1316 20.9773 91.5994 20.8295 91.9744 20.5341C92.3532 20.2348 92.6373 19.8333 92.8267 19.3295C93.0199 18.822 93.1165 18.2576 93.1165 17.6364C93.1165 17.0227 93.0218 16.4697 92.8324 15.9773C92.6468 15.4811 92.3646 15.089 91.9858 14.8011C91.6108 14.5095 91.1392 14.3636 90.571 14.3636C90.0256 14.3636 89.5672 14.5019 89.196 14.7784C88.8248 15.0511 88.5445 15.4337 88.3551 15.9261C88.1657 16.4148 88.071 16.9848 88.071 17.6364ZM100.054 22.1818C99.2661 22.1818 98.5748 21.9943 97.9801 21.6193C97.3892 21.2443 96.9271 20.7197 96.5938 20.0455C96.2642 19.3712 96.0994 18.5833 96.0994 17.6818C96.0994 16.7727 96.2642 15.9792 96.5938 15.3011C96.9271 14.6231 97.3892 14.0966 97.9801 13.7216C98.5748 13.3466 99.2661 13.1591 100.054 13.1591C100.842 13.1591 101.531 13.3466 102.122 13.7216C102.717 14.0966 103.179 14.6231 103.509 15.3011C103.842 15.9792 104.009 16.7727 104.009 17.6818C104.009 18.5833 103.842 19.3712 103.509 20.0455C103.179 20.7197 102.717 21.2443 102.122 21.6193C101.531 21.9943 100.842 22.1818 100.054 22.1818ZM100.054 20.9773C100.652 20.9773 101.145 20.8239 101.531 20.517C101.918 20.2102 102.204 19.8068 102.389 19.3068C102.575 18.8068 102.668 18.2652 102.668 17.6818C102.668 17.0985 102.575 16.5549 102.389 16.0511C102.204 15.5473 101.918 15.1402 101.531 14.8295C101.145 14.5189 100.652 14.3636 100.054 14.3636C99.4555 14.3636 98.9631 14.5189 98.5767 14.8295C98.1903 15.1402 97.9044 15.5473 97.7188 16.0511C97.5331 16.5549 97.4403 17.0985 97.4403 17.6818C97.4403 18.2652 97.5331 18.8068 97.7188 19.3068C97.9044 19.8068 98.1903 20.2102 98.5767 20.517C98.9631 20.8239 99.4555 20.9773 100.054 20.9773ZM106.696 13.2727L108.787 16.8409L110.878 13.2727H112.423L109.605 17.6364L112.423 22H110.878L108.787 18.6136L106.696 22H105.151L107.923 17.6364L105.151 13.2727H106.696Z" fill="#344054"/>
<path d="M24 44.5H40" stroke="#E8178A"/>
<rect x="14" y="49" width="36" height="18" rx="3" fill="#E8178A"/>
<path d="M23.7536 54.7273V62H22.2159V56.1868H22.1733L20.5078 57.2308V55.8672L22.3082 54.7273H23.7536ZM28.2733 62.0994C27.8992 62.0971 27.5382 62.0343 27.1902 61.9112C26.8445 61.7881 26.5344 61.5881 26.2598 61.3111C25.9851 61.0341 25.7673 60.6671 25.6064 60.2102C25.4477 59.7533 25.3684 59.1922 25.3684 58.527C25.3708 57.9162 25.4406 57.3705 25.5779 56.8899C25.7176 56.407 25.9165 55.9974 26.1745 55.6612C26.435 55.325 26.7463 55.0694 27.1085 54.8942C27.4707 54.7166 27.8767 54.6278 28.3265 54.6278C28.8118 54.6278 29.2404 54.7225 29.612 54.9119C29.9837 55.099 30.282 55.3535 30.5069 55.6754C30.7342 55.9974 30.8715 56.3584 30.9189 56.7585H29.4025C29.3433 56.5052 29.219 56.3063 29.0297 56.1619C28.8403 56.0175 28.6059 55.9453 28.3265 55.9453C27.853 55.9453 27.4932 56.1513 27.247 56.5632C27.0031 56.9751 26.8788 57.535 26.8741 58.2429H26.9238C27.0327 58.0275 27.1795 57.844 27.3642 57.6925C27.5512 57.5386 27.7631 57.4214 27.9998 57.3409C28.2389 57.258 28.4911 57.2166 28.7562 57.2166C29.1871 57.2166 29.5706 57.3184 29.9068 57.522C30.243 57.7232 30.5081 58.0002 30.7022 58.353C30.8964 58.7057 30.9934 59.1094 30.9934 59.5639C30.9934 60.0563 30.8786 60.4943 30.649 60.8778C30.4217 61.2614 30.1033 61.562 29.6937 61.7798C29.2865 61.9953 28.813 62.1018 28.2733 62.0994ZM28.2662 60.892C28.5029 60.892 28.7148 60.8352 28.9018 60.7216C29.0888 60.608 29.2356 60.4541 29.3422 60.2599C29.4487 60.0658 29.502 59.848 29.502 59.6065C29.502 59.3651 29.4487 59.1484 29.3422 58.9567C29.238 58.7649 29.0936 58.6122 28.9089 58.4986C28.7243 58.3849 28.5136 58.3281 28.2768 58.3281C28.0993 58.3281 27.9347 58.3613 27.7832 58.4276C27.6341 58.4938 27.5027 58.5862 27.389 58.7045C27.2778 58.8229 27.1902 58.9602 27.1262 59.1165C27.0623 59.2704 27.0304 59.4349 27.0304 59.6101C27.0304 59.8445 27.0836 60.0587 27.1902 60.2528C27.2991 60.447 27.4458 60.602 27.6305 60.718C27.8175 60.834 28.0294 60.892 28.2662 60.892ZM32.0978 64.0455V56.5455H33.5893V57.4616H33.6568C33.7231 57.3149 33.819 57.1657 33.9444 57.0142C34.0723 56.8603 34.238 56.7325 34.4416 56.6307C34.6475 56.5265 34.9032 56.4744 35.2086 56.4744C35.6064 56.4744 35.9733 56.5786 36.3095 56.7869C36.6457 56.9929 36.9144 57.3042 37.1156 57.7209C37.3168 58.1352 37.4174 58.6548 37.4174 59.2798C37.4174 59.8883 37.3192 60.402 37.1227 60.821C36.9286 61.2377 36.6634 61.5537 36.3272 61.7692C35.9934 61.9822 35.6194 62.0888 35.2051 62.0888C34.9115 62.0888 34.6618 62.0402 34.4558 61.9432C34.2522 61.8461 34.0853 61.7242 33.9551 61.5774C33.8249 61.4283 33.7254 61.2779 33.6568 61.1264H33.6106V64.0455H32.0978ZM33.5787 59.2727C33.5787 59.5971 33.6236 59.88 33.7136 60.1214C33.8036 60.3629 33.9338 60.5511 34.1042 60.6861C34.2747 60.8187 34.4818 60.8849 34.7257 60.8849C34.9719 60.8849 35.1802 60.8175 35.3507 60.6825C35.5211 60.5452 35.6502 60.3558 35.7377 60.1143C35.8277 59.8705 35.8727 59.59 35.8727 59.2727C35.8727 58.9579 35.8289 58.6809 35.7413 58.4418C35.6537 58.2027 35.5247 58.0156 35.3542 57.8807C35.1838 57.7457 34.9743 57.6783 34.7257 57.6783C34.4795 57.6783 34.2711 57.7434 34.1007 57.8736C33.9326 58.0038 33.8036 58.1884 33.7136 58.4276C33.6236 58.6667 33.5787 58.9484 33.5787 59.2727ZM39.4949 56.5455L40.4963 58.4524L41.5225 56.5455H43.0744L41.4941 59.2727L43.117 62H41.5723L40.4963 60.1143L39.438 62H37.8755L39.4949 59.2727L37.9324 56.5455H39.4949Z" fill="white"/>
<line x1="24.5" y1="48" x2="24.5" y2="41" stroke="#E8178A"/>
<line x1="39.5" y1="48" x2="39.5" y2="41" stroke="#E8178A"/>
<rect x="24" y="4" width="16" height="24" fill="#E8178A" fill-opacity="0.24"/>
</svg>

<svg width="114" height="67" viewBox="0 0 114 67" fill="none" xmlns="http://www.w3.org/2000/svg"><rect x=".5" y="4.5" width="23" height="23" rx="4.5" fill="#fff" stroke="#98A2B3"/><path d="M44.773 22.182c-.819 0-1.523-.193-2.114-.58a3.777 3.777 0 0 1-1.364-1.596c-.318-.678-.477-1.453-.477-2.324 0-.886.163-1.669.489-2.347.33-.682.788-1.214 1.375-1.596.59-.387 1.28-.58 2.068-.58.614 0 1.167.114 1.66.341a3.19 3.19 0 0 1 1.21.954c.314.41.509.887.585 1.432h-1.341c-.103-.397-.33-.75-.682-1.056-.349-.311-.818-.466-1.41-.466-.522 0-.98.136-1.374.409-.39.269-.695.65-.915 1.142-.216.488-.324 1.062-.324 1.721 0 .675.106 1.262.318 1.762.216.5.52.888.91 1.165.393.276.855.414 1.386.414.348 0 .664-.06.949-.181.284-.122.524-.296.721-.523.197-.227.337-.5.42-.819h1.342c-.076.516-.264.98-.563 1.393a3.15 3.15 0 0 1-1.176.977c-.485.238-1.05.358-1.693.358Zm6.733-5.432V22h-1.341V10.364h1.34v4.272h.114c.205-.45.512-.808.92-1.073.414-.27.963-.404 1.648-.404.595 0 1.116.12 1.563.358a2.41 2.41 0 0 1 1.04 1.085c.25.485.375 1.102.375 1.852V22h-1.341v-5.454c0-.694-.18-1.23-.54-1.608-.356-.383-.85-.574-1.483-.574-.44 0-.833.092-1.182.278a2.036 2.036 0 0 0-.818.813c-.197.356-.295.787-.295 1.295Zm11.771 5.432c-.84 0-1.566-.186-2.176-.557a3.737 3.737 0 0 1-1.404-1.568c-.325-.674-.488-1.458-.488-2.352 0-.894.163-1.682.488-2.364.33-.686.788-1.22 1.375-1.602.591-.387 1.28-.58 2.069-.58.454 0 .903.076 1.346.227.443.152.847.398 1.21.739.364.337.654.784.87 1.34.216.558.324 1.243.324 2.058v.568h-6.728v-1.16h5.364c0-.492-.099-.931-.296-1.317a2.226 2.226 0 0 0-.829-.915c-.356-.224-.776-.335-1.261-.335-.535 0-.997.132-1.387.397a2.615 2.615 0 0 0-.892 1.023c-.208.42-.312.871-.312 1.352v.773c0 .66.113 1.218.34 1.676.232.455.552.801.96 1.04.41.235.885.352 1.427.352.352 0 .67-.049.954-.148.288-.102.537-.253.745-.454.208-.204.37-.458.483-.761l1.295.363a2.87 2.87 0 0 1-.687 1.16c-.322.329-.72.587-1.193.772a4.426 4.426 0 0 1-1.597.273Zm9.199 0c-.818 0-1.523-.193-2.114-.58A3.777 3.777 0 0 1 69 20.006c-.319-.678-.478-1.453-.478-2.324 0-.886.163-1.669.489-2.347.33-.682.788-1.214 1.375-1.596.59-.387 1.28-.58 2.068-.58.614 0 1.167.114 1.66.341a3.19 3.19 0 0 1 1.21.954c.314.41.509.887.585 1.432h-1.341c-.102-.397-.33-.75-.682-1.056-.349-.311-.818-.466-1.41-.466-.522 0-.98.136-1.374.409-.39.269-.695.65-.915 1.142-.216.488-.324 1.062-.324 1.721 0 .675.106 1.262.318 1.762.216.5.52.888.91 1.165.393.276.855.414 1.386.414a2.4 2.4 0 0 0 .949-.181c.284-.122.524-.296.721-.523.197-.227.337-.5.42-.819h1.342c-.076.516-.264.98-.563 1.393a3.142 3.142 0 0 1-1.176.977c-.485.238-1.05.358-1.693.358Zm6.642-3.364-.023-1.659h.273l3.818-3.886h1.66l-4.069 4.113h-.114l-1.545 1.432ZM77.868 22V10.364h1.34V22h-1.34Zm5.545 0-3.409-4.318.955-.932L85.118 22h-1.705Zm3.34 0V10.364h1.34v4.295h.114c.099-.151.235-.345.41-.58.177-.238.431-.45.76-.636.334-.19.785-.284 1.353-.284.735 0 1.383.184 1.943.551.56.368.998.888 1.313 1.563.314.674.471 1.47.471 2.386 0 .924-.157 1.726-.471 2.404-.315.674-.75 1.197-1.307 1.568-.557.367-1.199.55-1.926.55-.56 0-1.01-.092-1.347-.278-.337-.189-.596-.403-.778-.642a8.623 8.623 0 0 1-.42-.602h-.16V22h-1.295Zm1.318-4.364c0 .66.097 1.24.29 1.745.193.5.475.892.846 1.176.372.28.826.42 1.364.42.56 0 1.028-.148 1.403-.443.38-.3.663-.7.853-1.204.193-.508.29-1.072.29-1.694 0-.613-.095-1.166-.285-1.659-.185-.496-.467-.888-.846-1.176-.375-.292-.847-.437-1.415-.437-.545 0-1.004.138-1.375.414-.371.273-.651.656-.84 1.148-.19.489-.285 1.059-.285 1.71Zm11.983 4.546c-.788 0-1.48-.188-2.074-.563-.59-.375-1.053-.9-1.386-1.573-.33-.675-.495-1.463-.495-2.364 0-.91.165-1.703.495-2.38.333-.679.795-1.205 1.386-1.58.595-.375 1.286-.563 2.074-.563.788 0 1.477.188 2.068.563.595.375 1.057.901 1.387 1.58.333.677.5 1.47.5 2.38 0 .901-.167 1.69-.5 2.364a3.77 3.77 0 0 1-1.387 1.573c-.591.375-1.28.563-2.068.563Zm0-1.205c.598 0 1.091-.153 1.477-.46.387-.307.673-.71.858-1.21.186-.5.279-1.042.279-1.625s-.093-1.127-.279-1.63a2.74 2.74 0 0 0-.858-1.223c-.386-.31-.879-.465-1.477-.465-.599 0-1.09.155-1.477.465a2.741 2.741 0 0 0-.858 1.222 4.679 4.679 0 0 0-.279 1.63c0 .584.093 1.126.279 1.626.185.5.471.903.858 1.21.386.307.879.46 1.477.46Zm6.642-7.704 2.091 3.568 2.091-3.568h1.545l-2.818 4.363L112.423 22h-1.545l-2.091-3.386L106.696 22h-1.545l2.772-4.364-2.772-4.363h1.545Z" fill="#344054"/><path d="M24 44.5h16" stroke="#E8178A"/><rect x="14" y="49" width="36" height="18" rx="3" fill="#E8178A"/><path d="M23.754 54.727V62h-1.538v-5.813h-.043l-1.665 1.044v-1.364l1.8-1.14h1.446Zm4.52 7.372a3.285 3.285 0 0 1-1.084-.188 2.465 2.465 0 0 1-.93-.6c-.275-.277-.493-.644-.654-1.1-.158-.458-.238-1.019-.238-1.684.003-.61.073-1.157.21-1.637.14-.483.338-.893.596-1.229.261-.336.572-.592.934-.767a2.73 2.73 0 0 1 1.218-.266c.486 0 .914.094 1.286.284.372.187.67.441.895.763.227.322.364.683.412 1.084h-1.517a1.013 1.013 0 0 0-.372-.597 1.126 1.126 0 0 0-.704-.217c-.473 0-.833.206-1.079.618-.244.412-.368.972-.373 1.68h.05a1.69 1.69 0 0 1 .44-.55c.187-.154.4-.272.636-.352.239-.083.491-.124.756-.124a2.168 2.168 0 0 1 1.946 1.136c.194.353.291.756.291 1.21 0 .493-.114.931-.344 1.315a2.388 2.388 0 0 1-.955.902c-.407.215-.881.322-1.42.32Zm-.008-1.207a1.2 1.2 0 0 0 1.076-.632c.107-.194.16-.412.16-.654 0-.24-.053-.458-.16-.65a1.18 1.18 0 0 0-1.065-.629 1.242 1.242 0 0 0-.494.1 1.24 1.24 0 0 0-.657.69 1.274 1.274 0 0 0-.096.493 1.277 1.277 0 0 0 .6 1.108c.187.116.4.174.636.174Zm3.832 3.154v-7.5h1.491v.916h.068c.066-.147.162-.296.287-.448.128-.154.294-.282.498-.383.206-.105.461-.157.767-.157.397 0 .764.105 1.1.313.337.206.605.517.807.934.2.414.301.934.301 1.559 0 .608-.098 1.122-.294 1.541-.194.417-.46.733-.796.948-.334.213-.708.32-1.122.32-.294 0-.543-.049-.75-.146a1.55 1.55 0 0 1-.5-.366c-.13-.149-.23-.3-.298-.45h-.046v2.919h-1.513Zm1.48-4.773c0 .324.046.607.136.848.09.242.22.43.39.565a.98.98 0 0 0 .622.199.975.975 0 0 0 .625-.203c.17-.137.3-.326.387-.568.09-.243.135-.524.135-.841a2.41 2.41 0 0 0-.132-.831 1.237 1.237 0 0 0-.387-.561.98.98 0 0 0-.628-.203 1 1 0 0 0-.625.196 1.22 1.22 0 0 0-.387.554c-.09.239-.135.52-.135.845Zm5.917-2.728 1.001 1.907 1.026-1.907h1.552l-1.58 2.728L43.117 62h-1.545l-1.076-1.886L39.438 62h-1.563l1.62-2.727-1.563-2.728h1.563Z" fill="#fff"/><path stroke="#E8178A" d="M24.5 48v-7m15 7v-7"/><path fill="#E8178A" fill-opacity=".24" d="M24 4h16v24H24z"/></svg>
